X: 1
T:Al's Reel
M:4/4
L:1/8
C:Sarah Northcott
K:Bm
fB (3BBB gBfB | fB (3BBB cdeg | fB (3BBB gBfB | edcd efge :||
! d2 fd (3ddd fd | =c2 cd efge | d2 fd (3ddd fd |1 =cdeg fddA :|2 =cdeg
 fdde ||
% Output from ABC2Win  Version 2.1 h on 09/09/2001
